icons/modern/beach-with-umbrella.svg

<svg width="32" height="32" viewBox="0 0 32 32" fill="none" xmlns="http://www.w3.org/2000/svg">
<g filter="url(#filter0_i_18_5055)">
<path d="M4.99999 29.0343H26.98C28.64 29.0343 29.99 27.6843 29.99 26.0243V20.0243C29.99 18.9243 29.1 18.0243 27.99 18.0243H3.98999C2.88999 18.0243 1.98999 18.9143 1.98999 20.0243V26.0243C1.98999 27.6943 3.33999 29.0343 4.99999 29.0343Z" fill="url(#paint0_linear_18_5055)"/>
</g>
<g filter="url(#filter1_f_18_5055)">
<path d="M7.78003 27.4071C21.4849 27.4071 25.4965 25.5386 25.4965 24.6242C25.4965 23.7098 20.7996 21.8395 7.78003 21.8395V27.4071Z" fill="url(#paint1_radial_18_5055)"/>
</g>
<path d="M27.99 17.0343H3.98999C2.88999 17.0343 1.98999 17.9243 1.98999 19.0343V21.0343H29.98V19.0343C29.98 17.9343 29.09 17.0343 27.99 17.0343Z" fill="url(#paint2_linear_18_5055)"/>
<path d="M27.99 17.0343H3.98999C2.88999 17.0343 1.98999 17.9243 1.98999 19.0343V21.0343H29.98V19.0343C29.98 17.9343 29.09 17.0343 27.99 17.0343Z" fill="url(#paint3_linear_18_5055)"/>
<g filter="url(#filter2_i_18_5055)">
<path d="M24.24 6.97434L7.10996 24.1043C6.90996 24.3043 6.90996 24.6243 7.10996 24.8243C7.30996 25.0243 7.62996 25.0243 7.82996 24.8243L24.96 7.69434C25.16 7.49434 25.16 7.17434 24.96 6.97434C24.76 6.77434 24.44 6.77434 24.24 6.97434Z" fill="url(#paint4_linear_18_5055)"/>
<path d="M24.24 6.97434L7.10996 24.1043C6.90996 24.3043 6.90996 24.6243 7.10996 24.8243C7.30996 25.0243 7.62996 25.0243 7.82996 24.8243L24.96 7.69434C25.16 7.49434 25.16 7.17434 24.96 6.97434C24.76 6.77434 24.44 6.77434 24.24 6.97434Z" fill="url(#paint5_radial_18_5055)"/>
</g>
<path d="M22.81 24.9443C23.57 25.7043 24.76 25.7643 25.33 25.0243C29.23 19.9243 28.82 12.5643 24.12 7.86432C19.42 3.16432 12.04 2.74432 6.93998 6.64432C6.19998 7.20432 6.25998 8.39432 7.01998 9.15432L7.77998 9.91432L15.3589 17.5573L22.04 24.1743L22.81 24.9443Z" fill="url(#paint6_linear_18_5055)"/>
<path d="M22.81 24.9443C23.57 25.7043 24.76 25.7643 25.33 25.0243C29.23 19.9243 28.82 12.5643 24.12 7.86432C19.42 3.16432 12.04 2.74432 6.93998 6.64432C6.19998 7.20432 6.25998 8.39432 7.01998 9.15432L7.77998 9.91432L15.3589 17.5573L22.04 24.1743L22.81 24.9443Z" fill="url(#paint7_radial_18_5055)"/>
<path d="M22.81 24.9443C23.57 25.7043 24.76 25.7643 25.33 25.0243C29.23 19.9243 28.82 12.5643 24.12 7.86432C19.42 3.16432 12.04 2.74432 6.93998 6.64432C6.19998 7.20432 6.25998 8.39432 7.01998 9.15432L7.77998 9.91432L15.3589 17.5573L22.04 24.1743L22.81 24.9443Z" fill="url(#paint8_linear_18_5055)"/>
<path d="M22.81 24.9443C23.57 25.7043 24.76 25.7643 25.33 25.0243C29.23 19.9243 28.82 12.5643 24.12 7.86432C19.42 3.16432 12.04 2.74432 6.93998 6.64432C6.19998 7.20432 6.25998 8.39432 7.01998 9.15432L7.77998 9.91432L15.3589 17.5573L22.04 24.1743L22.81 24.9443Z" fill="url(#paint9_linear_18_5055)"/>
<path d="M22.81 24.9443C23.57 25.7043 24.76 25.7643 25.33 25.0243C29.23 19.9243 28.82 12.5643 24.12 7.86432C19.42 3.16432 12.04 2.74432 6.93998 6.64432C6.19998 7.20432 6.25998 8.39432 7.01998 9.15432L7.77998 9.91432L15.3589 17.5573L22.04 24.1743L22.81 24.9443Z" fill="url(#paint10_radial_18_5055)"/>
<path d="M24.2231 7.99055C28.0085 11.9607 27.052 19.1523 22.03 24.1743L18.4543 20.596L18.46 20.5943C23.4191 15.6353 25.9385 10.0758 24.2231 7.99055Z" fill="url(#paint11_linear_18_5055)"/>
<path d="M24.2231 7.99055C28.0085 11.9607 27.052 19.1523 22.03 24.1743L18.4543 20.596L18.46 20.5943C23.4191 15.6353 25.9385 10.0758 24.2231 7.99055Z" fill="url(#paint12_linear_18_5055)"/>
<path d="M23.9496 7.71733C19.9789 3.93653 12.8003 4.89406 7.78003 9.91432L11.3309 13.4917C16.2942 8.5299 21.8611 6.00097 23.9496 7.71733Z" fill="url(#paint13_linear_18_5055)"/>
<path d="M23.9496 7.71733C19.9789 3.93653 12.8003 4.89406 7.78003 9.91432L11.3309 13.4917C16.2942 8.5299 21.8611 6.00097 23.9496 7.71733Z" fill="url(#paint14_linear_18_5055)"/>
<g filter="url(#filter3_f_18_5055)">
<path d="M7.38904 24.3679L12.9636 18.7847" stroke="url(#paint15_linear_18_5055)" stroke-width="0.25" stroke-linecap="round"/>
</g>
<defs>
<filter id="filter0_i_18_5055" x="1.83999" y="18.0243" width="28.15" height="11.01" filterUnits="userSpaceOnUse" color-interpolation-filters="sRGB">
<feFlood flood-opacity="0" result="BackgroundImageFix"/>
<feBlend mode="normal" in="SourceGraphic" in2="BackgroundImageFix" result="shape"/>
<feColorMatrix in="SourceAlpha" type="matrix" values="0 0 0 0 0 0 0 0 0 0 0 0 0 0 0 0 0 0 127 0" result="hardAlpha"/>
<feOffset dx="-0.15"/>
<feGaussianBlur stdDeviation="0.25"/>
<feComposite in2="hardAlpha" operator="arithmetic" k2="-1" k3="1"/>
<feColorMatrix type="matrix" values="0 0 0 0 1 0 0 0 0 0.886275 0 0 0 0 0.45098 0 0 0 1 0"/>
<feBlend mode="normal" in2="shape" result="effect1_innerShadow_18_5055"/>
</filter>
<filter id="filter1_f_18_5055" x="6.78003" y="20.8395" width="19.7166" height="7.56763" filterUnits="userSpaceOnUse" color-interpolation-filters="sRGB">
<feFlood flood-opacity="0" result="BackgroundImageFix"/>
<feBlend mode="normal" in="SourceGraphic" in2="BackgroundImageFix" result="shape"/>
<feGaussianBlur stdDeviation="0.5" result="effect1_foregroundBlur_18_5055"/>
</filter>
<filter id="filter2_i_18_5055" x="6.95996" y="6.62434" width="18.15" height="18.35" filterUnits="userSpaceOnUse" color-interpolation-filters="sRGB">
<feFlood flood-opacity="0" result="BackgroundImageFix"/>
<feBlend mode="normal" in="SourceGraphic" in2="BackgroundImageFix" result="shape"/>
<feColorMatrix in="SourceAlpha" type="matrix" values="0 0 0 0 0 0 0 0 0 0 0 0 0 0 0 0 0 0 127 0" result="hardAlpha"/>
<feOffset dy="-0.2"/>
<feGaussianBlur stdDeviation="0.25"/>
<feComposite in2="hardAlpha" operator="arithmetic" k2="-1" k3="1"/>
<feColorMatrix type="matrix" values="0 0 0 0 0.498039 0 0 0 0 0.262745 0 0 0 0 0.109804 0 0 0 1 0"/>
<feBlend mode="normal" in2="shape" result="effect1_innerShadow_18_5055"/>
</filter>
<filter id="filter3_f_18_5055" x="7.01404" y="18.4097" width="6.32458" height="6.33313" filterUnits="userSpaceOnUse" color-interpolation-filters="sRGB">
<feFlood flood-opacity="0" result="BackgroundImageFix"/>
<feBlend mode="normal" in="SourceGraphic" in2="BackgroundImageFix" result="shape"/>
<feGaussianBlur stdDeviation="0.125" result="effect1_foregroundBlur_18_5055"/>
</filter>
<linearGradient id="paint0_linear_18_5055" x1="27.0086" y1="28.2208" x2="12.0189" y2="19.8266" gradientUnits="userSpaceOnUse">
<stop stop-color="#FFC250"/>
<stop offset="1" stop-color="#FFB000"/>
</linearGradient>
<radialGradient id="paint1_radial_18_5055" cx="0" cy="0" r="1" gradientUnits="userSpaceOnUse" gradientTransform="translate(24.2605 24.2738) rotate(180) scale(19.2226 5.27651)">
<stop stop-color="#D7731C"/>
<stop offset="1" stop-color="#D7731C" stop-opacity="0"/>
</radialGradient>
<linearGradient id="paint2_linear_18_5055" x1="1.98999" y1="19.0385" x2="29.9822" y2="19.0385" gradientUnits="userSpaceOnUse">
<stop stop-color="#49ADE8"/>
<stop offset="1" stop-color="#6CEDFD"/>
</linearGradient>
<linearGradient id="paint3_linear_18_5055" x1="30.1986" y1="19.6483" x2="29.1531" y2="19.6483" gradientUnits="userSpaceOnUse">
<stop stop-color="#7DF8FF"/>
<stop offset="1" stop-color="#7DF8FF" stop-opacity="0"/>
</linearGradient>
<linearGradient id="paint4_linear_18_5055" x1="24.9871" y1="6.98406" x2="7.13584" y2="24.8353" gradientUnits="userSpaceOnUse">
<stop stop-color="#A66459"/>
<stop offset="0.588542" stop-color="#8A3F42"/>
<stop offset="1" stop-color="#7B4230"/>
</linearGradient>
<radialGradient id="paint5_radial_18_5055" cx="0" cy="0" r="1" gradientUnits="userSpaceOnUse" gradientTransform="translate(25.0517 6.90913) rotate(139.857) scale(0.921383 0.590771)">
<stop stop-color="#C18E80"/>
<stop offset="0.993283" stop-color="#C18E80" stop-opacity="0"/>
</radialGradient>
<linearGradient id="paint6_linear_18_5055" x1="22.1199" y1="13.4721" x2="13.1824" y2="15.5346" gradientUnits="userSpaceOnUse">
<stop stop-color="#FF6072"/>
<stop offset="1" stop-color="#EC3A51"/>
</linearGradient>
<radialGradient id="paint7_radial_18_5055" cx="0" cy="0" r="1" gradientUnits="userSpaceOnUse" gradientTransform="translate(16.1727 18.356) rotate(-23.1654) scale(12.8413 20.2531)">
<stop offset="0.767914" stop-color="#EA596B" stop-opacity="0"/>
<stop offset="1" stop-color="#EA596B"/>
</radialGradient>
<linearGradient id="paint8_linear_18_5055" x1="13.0793" y1="16.7668" x2="15.974" y2="13.872" gradientUnits="userSpaceOnUse">
<stop stop-color="#CB3A43"/>
<stop offset="0.481167" stop-color="#D92E49"/>
<stop offset="0.671191" stop-color="#D92E49" stop-opacity="0"/>
</linearGradient>
<linearGradient id="paint9_linear_18_5055" x1="29.6814" y1="22.3859" x2="22.6432" y2="17.3343" gradientUnits="userSpaceOnUse">
<stop stop-color="#EE442B"/>
<stop offset="1" stop-color="#EE442B" stop-opacity="0"/>
</linearGradient>
<radialGradient id="paint10_radial_18_5055" cx="0" cy="0" r="1" gradientUnits="userSpaceOnUse" gradientTransform="translate(20.4324 16.5346) rotate(-119.416) scale(13.489 22.5036)">
<stop stop-color="#CA3E4B" stop-opacity="0"/>
<stop offset="0.611421" stop-color="#CA3E4B" stop-opacity="0"/>
<stop offset="1" stop-color="#CA3E4B"/>
</radialGradient>
<linearGradient id="paint11_linear_18_5055" x1="15.0574" y1="17.2846" x2="23.9949" y2="8.34713" gradientUnits="userSpaceOnUse">
<stop stop-color="#E5DFEA"/>
<stop offset="1" stop-color="#FEFCFF"/>
</linearGradient>
<linearGradient id="paint12_linear_18_5055" x1="13.6824" y1="18.0971" x2="16.4637" y2="15.3159" gradientUnits="userSpaceOnUse">
<stop stop-color="#C9B9C9"/>
<stop offset="0.61236" stop-color="#D4C9DC"/>
<stop offset="0.814607" stop-color="#D4C9DC" stop-opacity="0"/>
</linearGradient>
<linearGradient id="paint13_linear_18_5055" x1="15.0574" y1="17.2846" x2="23.9949" y2="8.34713" gradientUnits="userSpaceOnUse">
<stop stop-color="#E5DFEA"/>
<stop offset="1" stop-color="#FEFCFF"/>
</linearGradient>
<linearGradient id="paint14_linear_18_5055" x1="13.6824" y1="18.0971" x2="16.4637" y2="15.3159" gradientUnits="userSpaceOnUse">
<stop stop-color="#C9B9C9"/>
<stop offset="0.61236" stop-color="#D4C9DC"/>
<stop offset="0.814607" stop-color="#D4C9DC" stop-opacity="0"/>
</linearGradient>
<linearGradient id="paint15_linear_18_5055" x1="7.77604" y1="23.7636" x2="13.5786" y2="22.5161" gradientUnits="userSpaceOnUse">
<stop stop-color="#7F5951"/>
<stop offset="1" stop-color="#7F5951" stop-opacity="0"/>
</linearGradient>
</defs>
</svg>

<svg width="32" height="32" fill="none" xmlns="http://www.w3.org/2000/svg"><g filter="url(#a)"><path d="M5 29.034h21.98c1.66 0 3.01-1.35 3.01-3.01v-6a2 2 0 0 0-2-2h-24a2 2 0 0 0-2 2v6c0 1.67 1.35 3.01 3.01 3.01Z" fill="url(#b)"/></g><g filter="url(#c)"><path d="M7.78 27.407c13.705 0 17.716-1.868 17.716-2.783 0-.914-4.696-2.784-17.716-2.784v5.567Z" fill="url(#d)"/></g><path d="M27.99 17.034h-24a2 2 0 0 0-2 2v2h27.99v-2c0-1.1-.89-2-1.99-2Z" fill="url(#e)"/><path d="M27.99 17.034h-24a2 2 0 0 0-2 2v2h27.99v-2c0-1.1-.89-2-1.99-2Z" fill="url(#f)"/><g filter="url(#g)"><path d="M24.24 6.974 7.11 24.104c-.2.2-.2.52 0 .72.2.2.52.2.72 0l17.13-17.13c.2-.2.2-.52 0-.72-.2-.2-.52-.2-.72 0Z" fill="url(#h)"/><path d="M24.24 6.974 7.11 24.104c-.2.2-.2.52 0 .72.2.2.52.2.72 0l17.13-17.13c.2-.2.2-.52 0-.72-.2-.2-.52-.2-.72 0Z" fill="url(#i)"/></g><path d="M22.81 24.944c.76.76 1.95.82 2.52.08 3.9-5.1 3.49-12.46-1.21-17.16-4.7-4.7-12.08-5.12-17.18-1.22-.74.56-.68 1.75.08 2.51l.76.76 7.579 7.643 6.681 6.617.77.77Z" fill="url(#j)"/><path d="M22.81 24.944c.76.76 1.95.82 2.52.08 3.9-5.1 3.49-12.46-1.21-17.16-4.7-4.7-12.08-5.12-17.18-1.22-.74.56-.68 1.75.08 2.51l.76.76 7.579 7.643 6.681 6.617.77.77Z" fill="url(#k)"/><path d="M22.81 24.944c.76.76 1.95.82 2.52.08 3.9-5.1 3.49-12.46-1.21-17.16-4.7-4.7-12.08-5.12-17.18-1.22-.74.56-.68 1.75.08 2.51l.76.76 7.579 7.643 6.681 6.617.77.77Z" fill="url(#l)"/><path d="M22.81 24.944c.76.76 1.95.82 2.52.08 3.9-5.1 3.49-12.46-1.21-17.16-4.7-4.7-12.08-5.12-17.18-1.22-.74.56-.68 1.75.08 2.51l.76.76 7.579 7.643 6.681 6.617.77.77Z" fill="url(#m)"/><path d="M22.81 24.944c.76.76 1.95.82 2.52.08 3.9-5.1 3.49-12.46-1.21-17.16-4.7-4.7-12.08-5.12-17.18-1.22-.74.56-.68 1.75.08 2.51l.76.76 7.579 7.643 6.681 6.617.77.77Z" fill="url(#n)"/><path d="M24.223 7.99c3.786 3.97 2.829 11.162-2.193 16.184l-3.576-3.578.006-.002c4.96-4.959 7.479-10.518 5.763-12.603Z" fill="url(#o)"/><path d="M24.223 7.99c3.786 3.97 2.829 11.162-2.193 16.184l-3.576-3.578.006-.002c4.96-4.959 7.479-10.518 5.763-12.603Z" fill="url(#p)"/><path d="M23.95 7.717C19.979 3.937 12.8 4.894 7.78 9.914l3.55 3.578C16.295 8.53 21.862 6 23.95 7.717Z" fill="url(#q)"/><path d="M23.95 7.717C19.979 3.937 12.8 4.894 7.78 9.914l3.55 3.578C16.295 8.53 21.862 6 23.95 7.717Z" fill="url(#r)"/><g filter="url(#s)"><path d="m7.389 24.368 5.575-5.583" stroke="url(#t)" stroke-width=".25" stroke-linecap="round"/></g><defs><linearGradient id="b" x1="27.009" y1="28.221" x2="12.019" y2="19.827" gradientUnits="userSpaceOnUse"><stop stop-color="#FFC250"/><stop offset="1" stop-color="#FFB000"/></linearGradient><linearGradient id="e" x1="1.99" y1="19.038" x2="29.982" y2="19.038" gradientUnits="userSpaceOnUse"><stop stop-color="#49ADE8"/><stop offset="1" stop-color="#6CEDFD"/></linearGradient><linearGradient id="f" x1="30.199" y1="19.648" x2="29.153" y2="19.648" gradientUnits="userSpaceOnUse"><stop stop-color="#7DF8FF"/><stop offset="1" stop-color="#7DF8FF" stop-opacity="0"/></linearGradient><linearGradient id="h" x1="24.987" y1="6.984" x2="7.136" y2="24.835" gradientUnits="userSpaceOnUse"><stop stop-color="#A66459"/><stop offset=".589" stop-color="#8A3F42"/><stop offset="1" stop-color="#7B4230"/></linearGradient><linearGradient id="j" x1="22.12" y1="13.472" x2="13.182" y2="15.535" gradientUnits="userSpaceOnUse"><stop stop-color="#FF6072"/><stop offset="1" stop-color="#EC3A51"/></linearGradient><linearGradient id="l" x1="13.079" y1="16.767" x2="15.974" y2="13.872" gradientUnits="userSpaceOnUse"><stop stop-color="#CB3A43"/><stop offset=".481" stop-color="#D92E49"/><stop offset=".671" stop-color="#D92E49" stop-opacity="0"/></linearGradient><linearGradient id="m" x1="29.681" y1="22.386" x2="22.643" y2="17.334" gradientUnits="userSpaceOnUse"><stop stop-color="#EE442B"/><stop offset="1" stop-color="#EE442B" stop-opacity="0"/></linearGradient><linearGradient id="o" x1="15.057" y1="17.285" x2="23.995" y2="8.347" gradientUnits="userSpaceOnUse"><stop stop-color="#E5DFEA"/><stop offset="1" stop-color="#FEFCFF"/></linearGradient><linearGradient id="p" x1="13.682" y1="18.097" x2="16.464" y2="15.316" gradientUnits="userSpaceOnUse"><stop stop-color="#C9B9C9"/><stop offset=".612" stop-color="#D4C9DC"/><stop offset=".815" stop-color="#D4C9DC" stop-opacity="0"/></linearGradient><linearGradient id="q" x1="15.057" y1="17.285" x2="23.995" y2="8.347" gradientUnits="userSpaceOnUse"><stop stop-color="#E5DFEA"/><stop offset="1" stop-color="#FEFCFF"/></linearGradient><linearGradient id="r" x1="13.682" y1="18.097" x2="16.464" y2="15.316" gradientUnits="userSpaceOnUse"><stop stop-color="#C9B9C9"/><stop offset=".612" stop-color="#D4C9DC"/><stop offset=".815" stop-color="#D4C9DC" stop-opacity="0"/></linearGradient><linearGradient id="t" x1="7.776" y1="23.764" x2="13.579" y2="22.516" gradientUnits="userSpaceOnUse"><stop stop-color="#7F5951"/><stop offset="1" stop-color="#7F5951" stop-opacity="0"/></linearGradient><radialGradient id="d" cx="0" cy="0" r="1" gradientUnits="userSpaceOnUse" gradientTransform="matrix(-19.2226 0 0 -5.27651 24.26 24.274)"><stop stop-color="#D7731C"/><stop offset="1" stop-color="#D7731C" stop-opacity="0"/></radialGradient><radialGradient id="i" cx="0" cy="0" r="1" gradientUnits="userSpaceOnUse" gradientTransform="matrix(-.70434 .59401 -.38087 -.4516 25.052 6.91)"><stop stop-color="#C18E80"/><stop offset=".993" stop-color="#C18E80" stop-opacity="0"/></radialGradient><radialGradient id="k" cx="0" cy="0" r="1" gradientUnits="userSpaceOnUse" gradientTransform="rotate(-23.165 52.867 -30.276) scale(12.8413 20.2531)"><stop offset=".768" stop-color="#EA596B" stop-opacity="0"/><stop offset="1" stop-color="#EA596B"/></radialGradient><radialGradient id="n" cx="0" cy="0" r="1" gradientUnits="userSpaceOnUse" gradientTransform="rotate(-119.416 15.046 2.3) scale(13.489 22.5036)"><stop stop-color="#CA3E4B" stop-opacity="0"/><stop offset=".611" stop-color="#CA3E4B" stop-opacity="0"/><stop offset="1" stop-color="#CA3E4B"/></radialGradient><filter id="a" x="1.84" y="18.024" width="28.15" height="11.01" filterUnits="userSpaceOnUse" color-interpolation-filters="sRGB"><feFlood flood-opacity="0" result="BackgroundImageFix"/><feBlend in="SourceGraphic" in2="BackgroundImageFix" result="shape"/><feColorMatrix in="SourceAlpha" values="0 0 0 0 0 0 0 0 0 0 0 0 0 0 0 0 0 0 127 0" result="hardAlpha"/><feOffset dx="-.15"/><feGaussianBlur stdDeviation=".25"/><feComposite in2="hardAlpha" operator="arithmetic" k2="-1" k3="1"/><feColorMatrix values="0 0 0 0 1 0 0 0 0 0.886275 0 0 0 0 0.45098 0 0 0 1 0"/><feBlend in2="shape" result="effect1_innerShadow_18_5055"/></filter><filter id="c" x="6.78" y="20.84" width="19.717" height="7.568" filterUnits="userSpaceOnUse" color-interpolation-filters="sRGB"><feFlood flood-opacity="0" result="BackgroundImageFix"/><feBlend in="SourceGraphic" in2="BackgroundImageFix" result="shape"/><feGaussianBlur stdDeviation=".5" result="effect1_foregroundBlur_18_5055"/></filter><filter id="g" x="6.96" y="6.624" width="18.15" height="18.35" filterUnits="userSpaceOnUse" color-interpolation-filters="sRGB"><feFlood flood-opacity="0" result="BackgroundImageFix"/><feBlend in="SourceGraphic" in2="BackgroundImageFix" result="shape"/><feColorMatrix in="SourceAlpha" values="0 0 0 0 0 0 0 0 0 0 0 0 0 0 0 0 0 0 127 0" result="hardAlpha"/><feOffset dy="-.2"/><feGaussianBlur stdDeviation=".25"/><feComposite in2="hardAlpha" operator="arithmetic" k2="-1" k3="1"/><feColorMatrix values="0 0 0 0 0.498039 0 0 0 0 0.262745 0 0 0 0 0.109804 0 0 0 1 0"/><feBlend in2="shape" result="effect1_innerShadow_18_5055"/></filter><filter id="s" x="7.014" y="18.41" width="6.325" height="6.333" filterUnits="userSpaceOnUse" color-interpolation-filters="sRGB"><feFlood flood-opacity="0" result="BackgroundImageFix"/><feBlend in="SourceGraphic" in2="BackgroundImageFix" result="shape"/><feGaussianBlur stdDeviation=".125" result="effect1_foregroundBlur_18_5055"/></filter></defs></svg>
